src/telerik-icons/solid/horizontal-rule.svg

<?xml version="1.0" encoding="utf-8"?>
<svg xmlns="http://www.w3.org/2000/svg" width="512" height="512" viewBox="0 0 512 512">
  <path d="M320 96H32V64h288v32zm96 32H32v32h384v-32zm64 96H32v64h448v-64zM320 352H32v32h288v-32zm96 64H32v32h384v-32z"/>
</svg>

<?xml version="1.0" encoding="utf-8"?>
<!-- Generator: Adobe Illustrator 19.2.1, SVG Export Plug-In . SVG Version: 6.00 Build 0)  -->
<svg xmlns="http://www.w3.org/2000/svg" width="512" height="512" viewBox="0 0 512 512">
<path d="M320,96H32V64h288V96z M416,128H32v32h384V128z M480,224H32v64h448V224z M320,352H32v32h288V352z M416,416H32v32h384V416z"
	/>
</svg>
